digital/Imbassy-X-Files/65ef0811cc67439994568a45/65ef0811cc674399945695f0_arrow.svg

<svg fill="none" height="24" viewBox="0 0 35 24" width="35" xmlns="http://www.w3.org/2000/svg"><path d="m2 10.5c-.82843 0-1.5.6716-1.5 1.5s.67157 1.5 1.5 1.5zm32.0607 2.5607c.5857-.5858.5857-1.5356 0-2.1214l-9.546-9.5459c-.5858-.585789-1.5355-.585789-2.1213 0-.5858.58579-.5858 1.53553 0 2.12132l8.4853 8.48528-8.4853 8.4853c-.5858.5858-.5858 1.5355 0 2.1213s1.5355.5858 2.1213 0zm-32.0607.4393h31v-3h-31z" fill="#000"/></svg>

<svg width="35" height="24" viewBox="0 0 35 24" fill="none" xmlns="http://www.w3.org/2000/svg">
<path d="M2 10.5C1.17157 10.5 0.5 11.1716 0.5 12C0.5 12.8284 1.17157 13.5 2 13.5V10.5ZM34.0607 13.0607C34.6464 12.4749 34.6464 11.5251 34.0607 10.9393L24.5147 1.3934C23.9289 0.807611 22.9792 0.807611 22.3934 1.3934C21.8076 1.97919 21.8076 2.92893 22.3934 3.51472L30.8787 12L22.3934 20.4853C21.8076 21.0711 21.8076 22.0208 22.3934 22.6066C22.9792 23.1924 23.9289 23.1924 24.5147 22.6066L34.0607 13.0607ZM2 13.5H33V10.5H2V13.5Z" fill="black"/>
</svg>
